X:1
T:Title
%%score { ( 1 3 ) | 2 }
L:1/8
M:6/8
K:Bb
V:1 treble nm="Grand Piano"
V:3 treble 
V:2 bass 
V:1
 z3 z[Q:1/4=100] FF | [DFB][DFB][DFB] [B,FB][CFA][DFB] | [CAc][CAc][CAc] [CAc]3 | ccc c[FB]c | %4
[M:9/16] d4- d/ |[M:1/4] FF |[M:3/4] [DFB][DFB] [DFB][B,FB] [CFA][DFB] | %7
 [CAc][CAc] [CAc] [CAc]2 [DGB] | [FA][FA] [FA][GB] [FA][=EG] |[M:5/8] F-F- F3 |[M:1/8] F | %11
[M:3/4] G2 GG GG | [GB]4- [GB][EG] | [DF]2 [DF][FB] [Fc][Fd] | [Fc]4 cc | dd dc cc | %16
[M:7/8] B2 B G3 G |[M:3/4] F2 BA GA |[M:2/4] [DB]4 |] %19
V:2
 z3 z F,F, | B,,B,,B,, D,C,B,, | F,F,F, F,3 | %3
 [F,A,F][F,A,F][F,A,F] [F,A,F][D,B,][K:treble][F,A,F] |[M:9/16] [B,F]4- [B,F]/ | %5
[M:1/4][K:bass] F,F, |[M:3/4] B,,B,, B,,D, C,B,, | F,F, F, F,2 B,, | %8
 [C,C][C,C] [C,C][C,C] [C,C][C,B,] |[M:5/8] [F,A,]-[F,A,]- [F,A,]3 |[M:1/8] [D,B,] | %11
[M:3/4] [E,B,E]2 [E,B,E][E,B,E] [E,B,E][E,B,E] | E,4- E,E, | B,,2 B,,D, [C,A,][B,,B,] | %14
 [F,A,]4[K:treble] [F,A,F][F,A,F] | [B,F][B,F] [B,F][K:bass][F,A,E] [F,A,E][F,A,E] | %16
[M:7/8] [G,B,D]2 [G,B,D] [E,B,E]3 [E,B,E] |[M:3/4] [F,B,D]2 [F,B,D][F,C] [F,B,][F,C] | %18
[M:2/4] [B,,F,]4 |] %19
V:3
 x6 | x6 | x6 | x6 |[M:9/16] x9/2 |[M:1/4] x2 |[M:3/4] x6 | x6 | x6 |[M:5/8] x5 |[M:1/8] x | %11
[M:3/4] x6 | B,6- | B,4 z2 | x6 | x6 |[M:7/8] x7 |[M:3/4] x6 |[M:2/4] x4 |] %19

